!!!COM: Palestrina, Giovanni Perluigi da
!!!OPR: Missa In duplicibus minoribus (II)
!!!OMD: Sanctus rpt
!!!OTL: Hosanna
**kern	**kern	**kern	**kern	**kern
*Ibass	*Itenor	*Itenor	*Icalto	*Icant
!Bassus	!Tenor 2	!Tenor 1	!Altus	!Cantus
*clefF4	*clefGv2	*clefGv2	*clefG2	*clefG2
*k[]	*k[]	*k[]	*k[]	*k[]
*E:phr	*E:phr	*E:phr	*E:phr	*E:phr
*M4/2	*M4/2	*M4/2	*M4/2	*M4/2
=52	=52	=52	=52	=52
1r	1r	1r	1e	0r
1E	1e	[1B	1g	.
=53	=53	=53	=53	=53
1G	1d	1B]	2.g	1r
.	.	.	4f	.
1A	2c	2.c	4e	1e
.	.	.	4d	.
.	2A	.	2c	.
.	.	4d	.	.
=54	=54	=54	=54	=54
1E	1B	1e	2B	1g
.	.	.	1e	.
2r	2.A	1c	.	1a
[2A	.	.	2e	.
.	4B	.	.	.
=55	=55	=55	=55	=55
2A]	2c	2r	2A	1e
2G	2B	1e	2B	.
1A	1e	.	2c	2r
.	.	2c	[2e	[2a
=56	=56	=56	=56	=56
1B	1r	1d	4e]	2a]
.	.	.	4d	.
.	.	.	2d	2g
1A	2r	1e	4c	1a
.	.	.	4d	.
.	2c	.	4e	.
.	.	.	4f	.
=57	=57	=57	=57	=57
1G	2d	1r	1g	1b
.	1d	.	.	.
1A	.	2r	2f	1a
.	[2c	2A	4e	.
.	.	.	4d	.
=58	=58	=58	=58	=58
0r	2c]	2c	2e	1g
.	2.B	2d	2.d	.
.	.	[1e	.	1a
.	4A	.	4c	.
.	[2A	.	4c	.
.	.	.	8B	.
.	.	.	8A	.
=59	=59	=59	=59	=59
1E	2A]	1e]	1B	0r
.	2G#	.	.	.
1F	1A	2c	2r	.
.	.	[2d	2A	.
=60	=60	=60	=60	=60
1E	1r	2d]	2B	1e
.	.	2c#	2G	.
1D	2r	1d	2A	1f
.	2F	.	[2d	.
=61	=61	=61	=61	=61
1r	2G	2r	2d]	1e
.	2A	2A	2c#	.
1F	1D	2A	[1d	1d
.	.	2A	.	.
=62	=62	=62	=62	=62
1G	2r	2B	1d]	1r
.	2.d	2B	.	.
1A	.	1c	1r	1f
.	4c	.	.	.
.	2c	.	.	.
=63	=63	=63	=63	=63
1G	1B	1d	2r	1g
.	.	.	2B	.
1F	2A	2r	2c	1a
.	2D	2A	2d	.
=64	=64	=64	=64	=64
1E	1G	2B	1e	1g
.	.	2c	.	.
1D	2r	1d	1a	1f
.	[2d	.	.	.
=65	=65	=65	=65	=65
1E	2d]	0G	0g	1e
.	1c	.	.	.
1r	.	.	.	1d
.	2B	.	.	.
=66	=66	=66	=66	=66
1.C	2c	2.E	2.g	[0e
.	1c	.	.	.
.	.	4F	4f	.
.	.	1G	4e	.
.	.	.	4d	.
2C	[2e	.	[2c	.
=67	=67	=67	=67	=67
0AA	4e]	1A	2c]	0e]
.	4d	.	.	.
.	4c	.	2A	.
.	4B	.	.	.
.	1A	1E	1c	.
=68	=68	=68	=68	=68
[0E	[0G#	[0E	[0B	[0e
=69	=69	=69	=69	=69
0E]	0G#]	0E]	0B]	0e]
==	==	==	==	==
*-	*-	*-	*-	*-
!!!CDT: 1525/^1526/-1594/2/2
!!!OCY: Italia
!!!AGN: Mass (Paraphrase)
!!!AST: renaissance, vocal
!!!ASW: Gregorian Mass
!!!PWK: Masses, Book Mantuan I
!!!RNB: Cadence finals: A
!!!YOR: Le Opere Complete, v. 18, p. 1
!!!YOO: Rome, Italy: Fratelli Scalera
!!!END: 1992//
!!!EED: John Miller
!!!YEC: Copyright 2000, John Miller
!!!YEN: United States of America
!!!YEM: Rights to all derivative electronic formats reserved.
!!!YEM: Refer to licensing agreement for further details.
!!!YEM: This file must be accompanied by the licensing agreement.
!!!YEM: A copy of the licensing agreement may be found at http://www.music-cog.ohio-state.edu/HumdrumDatabases/Palestrina/license.txt
!!!EMD: converted to Humdrum by Bret Aarden
